fileicons/icons/webpack.svg

<?xml version="1.0" encoding="UTF-8" standalone="no"?>
<svg
   xmlns:dc="http://purl.org/dc/elements/1.1/"
   xmlns:cc="http://creativecommons.org/ns#"
   xmlns:rdf="http://www.w3.org/1999/02/22-rdf-syntax-ns#"
   xmlns:svg="http://www.w3.org/2000/svg"
   xmlns="http://www.w3.org/2000/svg"
   xmlns:sodipodi="http://sodipodi.sourceforge.net/DTD/sodipodi-0.dtd"
   xmlns:inkscape="http://www.inkscape.org/namespaces/inkscape"
   version="1.1"
   width="24"
   height="24"
   viewBox="0 0 24 24"
   id="svg2"
   inkscape:version="0.91 r13725"
   sodipodi:docname="webpack.svg">
  <metadata
     id="metadata10">
    <rdf:RDF>
      <cc:Work
         rdf:about="">
        <dc:format>image/svg+xml</dc:format>
        <dc:type
           rdf:resource="http://purl.org/dc/dcmitype/StillImage" />
        <dc:title></dc:title>
      </cc:Work>
    </rdf:RDF>
  </metadata>
  <defs
     id="defs8" />
  <sodipodi:namedview
     pagecolor="#ffffff"
     bordercolor="#666666"
     borderopacity="1"
     objecttolerance="10"
     gridtolerance="10"
     guidetolerance="10"
     inkscape:pageopacity="0"
     inkscape:pageshadow="2"
     inkscape:window-width="733"
     inkscape:window-height="696"
     id="namedview6"
     showgrid="false"
     showguides="true"
     inkscape:guide-bbox="true"
     inkscape:zoom="9.8333333"
     inkscape:cx="11.285434"
     inkscape:cy="8.36354"
     inkscape:window-x="-7"
     inkscape:window-y="0"
     inkscape:window-maximized="0"
     inkscape:current-layer="svg2" />
  <path
     d="M21,16.5C21,16.88 20.79,17.21 20.47,17.38L12.57,21.82C12.41,21.94 12.21,22 12,22C11.79,22 11.59,21.94 11.43,21.82L3.53,17.38C3.21,17.21 3,16.88 3,16.5V7.5C3,7.12 3.21,6.79 3.53,6.62L11.43,2.18C11.59,2.06 11.79,2 12,2C12.21,2 12.41,2.06 12.57,2.18L20.47,6.62C20.79,6.79 21,7.12 21,7.5V16.5Z"
     id="path4"
     style="fill:#90caf9;fill-opacity:1" />
  <path
     inkscape:connector-curvature="0"
     d="m 15.803389,13.977684 c 0,0.160802 -0.08887,0.300446 -0.224276,0.372384 l -3.342995,1.878848 c -0.0677,0.05078 -0.152339,0.07617 -0.241203,0.07617 -0.08886,0 -0.173497,-0.02539 -0.241204,-0.07617 L 8.4107175,14.350068 C 8.2753048,14.278132 8.1864408,14.138486 8.1864408,13.977684 l 0,-3.808474 c 0,-0.160802 0.088864,-0.3004472 0.2242767,-0.3723842 L 11.753711,7.9179777 c 0.0677,-0.05078 0.152339,-0.076169 0.241204,-0.076169 0.08886,0 0.173497,0.025389 0.241203,0.076169 l 3.342995,1.8788481 c 0.135411,0.07194 0.224276,0.2115822 0.224276,0.3723842 l 0,3.808474 z"
     id="path4-7"
     style="fill:#42a5f5;fill-opacity:1" />
</svg>

<svg xmlns="http://www.w3.org/2000/svg" width="24" height="24" viewBox="0 0 24 24"><path d="M21 16.5c0 .38-.21.71-.53.88l-7.9 4.44c-.16.12-.36.18-.57.18-.21 0-.41-.06-.57-.18l-7.9-4.44A.991.991 0 0 1 3 16.5v-9c0-.38.21-.71.53-.88l7.9-4.44c.16-.12.36-.18.57-.18.21 0 .41.06.57.18l7.9 4.44c.32.17.53.5.53.88v9z" fill="#90caf9"/><path d="M15.803 13.978c0 .16-.088.3-.224.372l-3.343 1.879a.4.4 0 0 1-.241.076.4.4 0 0 1-.241-.076L8.41 14.35a.42.42 0 0 1-.225-.372v-3.809c0-.16.09-.3.225-.372l3.343-1.879a.4.4 0 0 1 .24-.076.4.4 0 0 1 .242.076l3.343 1.879a.42.42 0 0 1 .224.372v3.809z" fill="#42a5f5"/></svg>
